X:1
T:Title
%%score { 1 | ( 2 3 ) }
L:1/8
Q:1/4=86
M:2/4
K:Ab
V:1 treble nm="Grand Piano"
V:2 bass 
V:3 bass 
V:1
 [Ec]2 [CA][DF] | [CE][A,C] [A,CE]2 | [A,DF]2 [A,FA][A,DF] | [A,CE]4 | [CE]2 [B,EB][B,EB] | %5
w: A.~B.~Hoag * *|||||
 [CFA][C=EG] [CFA][_EAc] | [EGB][B,FA] [B,EG][A,=DF] | [G,E]4 | .[Gd]2 [B,EG][B,DF] | %9
w: ||||
 [A,DF][A,CE] [CEA]2 | .[Dd]2 [A,DF][B,=EG] | [A,FA][EGB] c2 | ec [EB][EA] | %13
w: ||||
[M:5/8] [EG][DF] [Fd]3 |[M:2/4] [CE]c cB | [CA]4 |] %16
w: |||
V:2
 [A,,A,]2 [A,,A,][A,,A,] | [A,,A,]A,, A,,2 | D,2 D,D, | A,,4 | A,2 G,G, | F,C, F,A,, | %6
 B,,B,, B,,B,, | E,4 | z[K:treble] B[K:bass] E,E, | A,,A,, A,,2 | z[K:treble] B[K:bass] D,C, | %11
 F,E, [A,EA]2 | CA, [B,,G,][C,A,] |[M:5/8] [D,A,][D,A,] [D,A,]3 |[M:2/4] z E [E,A,E][E,G,D] | %15
 [A,,A,]4 |] %16
V:3
 x4 | x4 | x4 | x4 | x4 | x4 | x4 | x4 | [E,B,]2[K:treble][K:bass] z2 | x4 | %10
 [B,,B,]2[K:treble][K:bass] z2 | x4 | [A,,E]2 z2 |[M:5/8] x5 |[M:2/4] [E,A,]2 z2 | x4 |] %16

